packages/tokens/icons/setToNow/size24Px.svg

<svg viewBox="0 0 24 24" fill="none" xmlns="http://www.w3.org/2000/svg" width="1em" height="1em"><path d="M3.5 10.5L3.5 6.5C3.5 5.39543 4.39543 4.5 5.5 4.5L18.5 4.5C19.6046 4.5 20.5 5.39543 20.5 6.5L20.5 18.5C20.5 19.6046 19.6046 20.5 18.5 20.5L5.5 20.5C4.39543 20.5 3.5 19.6046 3.5 18.5L3.5 16.5" stroke="currentColor" stroke-linecap="round" stroke-linejoin="round"/><line x1="8.5" y1="3.5" x2="8.5" y2="5.5" stroke="currentColor" stroke-linecap="round" stroke-linejoin="round"/><line x1="15.5" y1="3.5" x2="15.5" y2="5.5" stroke="currentColor" stroke-linecap="round" stroke-linejoin="round"/><path d="M3.5 8.5L20 8.5" stroke="currentColor" stroke-linecap="round" stroke-linejoin="round"/><path d="M2.5 13.5L10.5 13.5M10.5 13.5L8.5 11.5M10.5 13.5L8.5 15.5" stroke="currentColor" stroke-linecap="round" stroke-linejoin="round"/><path d="M13.5 11.5H17.5V15.5H13.5V11.5Z" stroke="currentColor" stroke-linecap="round" stroke-linejoin="round"/></svg>

<svg xmlns="http://www.w3.org/2000/svg" fill="none" viewBox="0 0 24 24" width="1em" height="1em"><path stroke="currentColor" stroke-linecap="round" stroke-linejoin="round" d="M3.5 10.5v-4a2 2 0 0 1 2-2h13a2 2 0 0 1 2 2v12a2 2 0 0 1-2 2h-13a2 2 0 0 1-2-2v-2m5-13v2m7-2v2m-12 3H20m-17.5 5h8m0 0-2-2m2 2-2 2"/><path stroke="currentColor" stroke-linecap="round" stroke-linejoin="round" d="M13.5 11.5h4v4h-4v-4Z"/></svg>
